assets/img/help/get-started.svg

<svg width="69" height="69" viewBox="0 0 69 69" fill="none" xmlns="http://www.w3.org/2000/svg">
<path d="M67.9987 34.5C67.9987 53.0052 53.0006 68.0067 34.4994 68.0067C15.9982 68.0067 1 53.0052 1 34.5C1 15.9948 15.9982 0.993286 34.4994 0.993286C53.0006 0.993286 67.9987 15.9948 67.9987 34.5Z" fill="#EBF3FA"/>
<path fill-rule="evenodd" clip-rule="evenodd" d="M0 34.5C0 15.4533 15.439 0 34.5 0C53.561 0 69 15.4533 69 34.5H66.9987C66.9987 16.5362 52.4414 1.98656 34.5 1.98656C16.5586 1.98656 2.00126 16.5362 2.00126 34.5H0Z" fill="#A8B6C6"/>
<path fill-rule="evenodd" clip-rule="evenodd" d="M62.6693 34.5H5.56812V50.7056C6.89852 53.1182 8.52151 55.3464 10.389 57.3423C10.4485 57.3444 10.5082 57.3455 10.5681 57.3455H57.6693C58.0257 57.3455 58.3733 57.3082 58.7086 57.2373C60.1936 55.6364 61.522 53.8878 62.6693 52.016V34.5Z" fill="white"/>
<path d="M5.56812 12.8469C5.56812 10.0855 7.80669 7.84692 10.5681 7.84692H58.4307C61.1921 7.84692 63.4307 10.0855 63.4307 12.8469V19.2697H5.56812V12.8469Z" fill="#112E51"/>
<ellipse cx="10.5175" cy="13.5583" rx="1.14202" ry="1.14227" fill="white"/>
<ellipse cx="14.3242" cy="13.5583" rx="1.14202" ry="1.14227" fill="white"/>
<ellipse cx="18.131" cy="13.5583" rx="1.14202" ry="1.14227" fill="white"/>
<path fill-rule="evenodd" clip-rule="evenodd" d="M38.3286 13.5583C38.3286 12.7354 39.0006 12.0684 39.8296 12.0684H59.6246C60.4536 12.0684 61.1256 12.7354 61.1256 13.5583C61.1256 14.3811 60.4536 15.0482 59.6246 15.0482H39.8296C39.0006 15.0482 38.3286 14.3811 38.3286 13.5583Z" fill="white"/>
<path fill-rule="evenodd" clip-rule="evenodd" d="M10.5681 6.84692C7.25441 6.84692 4.56812 9.53322 4.56812 12.8469V48.7391C5.15917 50.0046 5.82801 51.2264 6.56846 52.3983C6.56823 52.3807 6.56812 52.3631 6.56812 52.3455V12.8469C6.56812 10.6378 8.35898 8.84692 10.5681 8.84692H58.4307C60.6398 8.84692 62.4307 10.6378 62.4307 12.8469V52.3455C62.4307 52.3637 62.4305 52.3818 62.4303 52.4C63.1707 51.2282 63.8396 50.0066 64.4307 48.7412V12.8469C64.4307 9.53322 61.7444 6.84692 58.4307 6.84692H10.5681ZM57.6317 58.3455C58.3454 57.6444 59.0274 56.9111 59.6755 56.148C59.2837 56.2762 58.8653 56.3455 58.4307 56.3455H10.5681C10.134 56.3455 9.71609 56.2763 9.32471 56.1485C9.97263 56.9114 10.6545 57.6445 11.3681 58.3455H57.6317Z" fill="#112E51"/>
<path fill-rule="evenodd" clip-rule="evenodd" d="M34.5 69C15.439 69 0 53.5467 0 34.5H2.00126C2.00126 52.4638 16.5586 67.0134 34.5 67.0134C52.4414 67.0134 66.9987 52.4638 66.9987 34.5H69C69 53.5467 53.561 69 34.5 69Z" fill="#A8B6C6"/>
<path d="M40.212 25.3618H33.6729V48.6381C39.8771 45.8671 42.0459 42.2759 42.5949 41.1564C42.6981 40.9424 42.7507 40.7072 42.7486 40.4692V27.9222C42.7486 27.2432 42.4814 26.5919 42.0057 26.1117C41.53 25.6316 40.8848 25.3618 40.212 25.3618Z" fill="#B51E23"/>
<path d="M27.1392 25.3618C25.7383 25.3618 24.6026 26.5081 24.6026 27.9222V40.4692C24.6006 40.7072 24.6532 40.9424 24.7563 41.1564C25.3054 42.2648 27.5016 45.8837 33.6729 48.6381V25.3618H27.1392Z" fill="#E21D3E"/>
<path d="M35.2817 35.3928C36.1442 34.7078 36.4818 33.5464 36.1228 32.4997C35.7637 31.4529 34.7869 30.7509 33.6895 30.7509C32.592 30.7509 31.6152 31.4529 31.2561 32.4997C30.8971 33.5464 31.2347 34.7078 32.0972 35.3928C31.8117 37.0221 31.5299 38.6515 31.2517 40.2808C32.0514 40.4199 32.8614 40.4903 33.673 40.4914C34.4961 40.508 35.3191 40.4523 36.1327 40.3251C35.8472 38.6625 35.5837 37.0332 35.2817 35.3928Z" fill="white"/>
</svg>

<svg width="69" height="69" fill="none" xmlns="http://www.w3.org/2000/svg"><path d="M67.999 34.5c0 18.505-14.998 33.507-33.5 33.507C16 68.007 1 53.005 1 34.5 1 15.995 15.998.993 34.5.993 53 .993 67.998 15.995 67.998 34.5z" fill="#EBF3FA"/><path fill-rule="evenodd" clip-rule="evenodd" d="M0 34.5C0 15.453 15.439 0 34.5 0S69 15.453 69 34.5h-2.001c0-17.964-14.558-32.513-32.499-32.513-17.941 0-32.499 14.55-32.499 32.513H0z" fill="#A8B6C6"/><path fill-rule="evenodd" clip-rule="evenodd" d="M62.67 34.5H5.567v16.206a33.138 33.138 0 004.821 6.636c.06.002.12.004.18.004h47.1a5.02 5.02 0 001.04-.109 33.162 33.162 0 003.96-5.221V34.5z" fill="#fff"/><path d="M5.568 12.847a5 5 0 015-5h47.863a5 5 0 015 5v6.423H5.568v-6.423z" fill="#112E51"/><circle cx="10.518" cy="13.558" fill="#fff" r="1.142"/><circle cx="14.324" cy="13.558" fill="#fff" r="1.142"/><circle cx="18.131" cy="13.558" fill="#fff" r="1.142"/><path fill-rule="evenodd" clip-rule="evenodd" d="M38.329 13.558c0-.823.672-1.49 1.5-1.49h19.796c.829 0 1.5.667 1.5 1.49s-.671 1.49-1.5 1.49H39.83a1.495 1.495 0 01-1.501-1.49z" fill="#fff"/><path fill-rule="evenodd" clip-rule="evenodd" d="M10.568 6.847a6 6 0 00-6 6v35.892a32.973 32.973 0 002 3.66V12.845a4 4 0 014-4h47.863a4 4 0 014 4V52.4a32.984 32.984 0 002-3.659V12.847a6 6 0 00-6-6H10.568zm47.064 51.499a33.277 33.277 0 002.044-2.198c-.392.128-.81.197-1.245.197H10.568a3.99 3.99 0 01-1.243-.197 33.42 33.42 0 002.043 2.197h46.264z" fill="#112E51"/><path fill-rule="evenodd" clip-rule="evenodd" d="M34.5 69C15.439 69 0 53.547 0 34.5h2.001c0 17.964 14.558 32.513 32.499 32.513 17.941 0 32.499-14.55 32.499-32.513H69C69 53.547 53.561 69 34.5 69z" fill="#A8B6C6"/><path d="M40.212 25.362h-6.54v23.276c6.205-2.77 8.374-6.362 8.923-7.482a1.55 1.55 0 00.154-.687V27.922c0-.679-.268-1.33-.743-1.81a2.525 2.525 0 00-1.794-.75z" fill="#B51E23"/><path d="M27.14 25.362c-1.402 0-2.537 1.146-2.537 2.56V40.47c-.002.238.05.473.153.687.55 1.109 2.746 4.728 8.917 7.482V25.362h-6.534z" fill="#E21D3E"/><path d="M35.282 35.393a2.614 2.614 0 00.84-2.893 2.577 2.577 0 00-2.432-1.75 2.577 2.577 0 00-2.434 1.75 2.614 2.614 0 00.841 2.893c-.285 1.63-.567 3.258-.845 4.888.8.139 1.61.21 2.421.21.823.017 1.646-.039 2.46-.166-.286-1.663-.55-3.292-.851-4.932z" fill="#fff"/></svg>
